X: 600
T: Dön Beri Dön
C: Bakır Yurtsever
O: Turkey
F: http://compmusic.upf.edu/node/140
N: tahir--turku--kapali_curcuna--don_beri--urfa
N: makam= tahir
N: form= turku
N: usul= kapali_curcuna = 10/8
M: 10/8
L: 1/16
K: C _2/4B ^3/4f  
Q: 1/4=234
%%MIDI tuningsystem comma53
z4 f2g4a4a6  | a4 a2a4a4a6  | a4 a2c'4b2 a2g2 f2{g}e2  | \
w:  Dön  be ri  dön   |  be ri  de  yü zün   |  gö re *  yim    | 
d2z2 c'2c'4c'2 {d'}b2c'4b2  | 
w:  *  Dön  be ri  *  *  dön   | 
c'2b2 c'2{d'}c'2 b2b4b4a2  | a4 a6a2 {c'}b2{c'}a6  | \
w:  be *  ri  *  de  *  yü zün   |  gö re *  *  yim    | 
z4 f2g4a4a4g2  | a2f2 g2e4e2 d2d4B2  | 
w:  Yü zün  gö ren  |  le *  re  *  kur *  bân   | 
c4 {d}c2B2 A2{B}A8z2  | A2{B}G2 e2{f}e2 d2d2 {e}c2{e}d4B2  | \
w:  o *  la *  *  *  yım    |  Gel  *  *  gü *  lüm  *  gel   | 
c4 {d}c2{d}B3AA2 {B}G2{B}A4z2  | 
w:  di  *  gel  *  *  *  gel    | 
A2{B}G2 e2{f}e2 d2d2 {e}c2{e}d4B2  | \
w:  Gel  *  *  şi *  rin  *  gel   | 
c4 {d}c2B2 A2A2 B2c2 d2e2  | =f4 f2f2 e2f2 g2e4d2  | 
w:  ha  *  gel  *  *  gel    |  *  Di  gel  *  di  *  gel   | 
d2{e}c2 d2d2 B2c2 B2c4B2  | {c}B2A2 c2d4d2 {e}c2d4B2  | \
w:  a *  *  dı na  *  kur *  bân    |  *  *  *  Di  gel  di  *  *  gel   | 
c2B2 c2{d}c2 B2B2 A2c4B2  | 
w:  sa *  nı *  na  *  hay *  rân    | 
A2z2 G2c4c2 B2{d}c2 B2c2  | A2z2 c2B2 A2A2 G2{d}c2 {d}B2A2  | \
w:  *  Di  gel  di  *  *  gel   |  *  ka day  *  ben_ *  *  a  | 
{B}A16-A4  | 
w:  *  lım    | 
z4 f2g4a4a6  | a4 a2a4a4a6  | a4 a2c'4b2 a2g2 f2{g}e2  | \
w:  Dön  be ri  dön   |  be ri  de  yü zün   |  gö re *  yim    | 
d2z2 c'2c'4c'2 {d'}b2c'4b2  | 
w:  *  Dön  be ri  *  *  dön   | 
c'2b2 c'2{d'}c'2 b2b4b4a2  | a4 a6a2 {c'}b2{c'}a6  | \
w:  be *  ri  *  de  *  yü zün   |  gö re *  *  yim    | 
z4 f2g4a4a4g2  | a2f2 g2e4e2 d2d4B2  | 
w:  Yü zün  gö ren  |  le *  re  *  kur *  bân   | 
c4 {d}c2B2 A2{B}A8z2  | A2{B}G2 e2{f}e2 d2d2 {e}c2{e}d4B2  | \
w:  o *  la *  *  *  yım    |  Gel  *  *  gü *  lüm  *  gel   | 
c4 {d}c2{d}B3AA2 {B}G2{B}A4z2  | 
w:  di  *  gel  *  *  *  gel    | 
A2{B}G2 e2{f}e2 d2d2 {e}c2{e}d4B2  | \
w:  Gel  *  *  şi *  rin  *  gel   | 
c4 {d}c2B2 A2A2 B2c2 d2e2  | =f4 f2f2 e2f2 g2e4d2  | 
w:  ha  *  gel  *  *  gel    |  *  Di  gel  *  di  *  gel   | 
d2{e}c2 d2d2 B2c2 B2c4B2  | {c}B2A2 c2d4d2 {e}c2d4B2  | \
w:  a *  *  dı na  *  kur *  bân    |  *  *  *  Di  gel  di  *  *  gel   | 
c2B2 c2{d}c2 B2B2 A2c4B2  | 
w:  sa *  nı *  na  *  hay *  rân    | 
A2z2 G2c4c2 B2{d}c2 B2c2  | A2z2 c2B2 A2A2 G2{d}c2 {d}B2A2  | \
w:  *  Di  gel  di  *  *  gel   |  *  ka day  *  ben_ *  *  a  | 
{B}A16-A4  | 
w:  *  lım    | 
|


